views/img/mastercard.svg

<?xml version="1.0" encoding="UTF-8"?>
<svg width="75px" height="48px" viewBox="0 0 75 48" version="1.1" xmlns="http://www.w3.org/2000/svg" xmlns:xlink="http://www.w3.org/1999/xlink">
    <title>Logo_mastercard</title>
    <g id="Logo_mastercard" stroke="none" stroke-width="1" fill="none" fill-rule="evenodd">
        <rect id="Rectangle-Copy" stroke="#888888" fill="#FFFFFF" x="0.5" y="0.5" width="74" height="47" rx="6"></rect>
        <g id="Mastercard-logo" transform="translate(13.000000, 5.000000)" fill-rule="nonzero">
            <g id="g15" transform="translate(2.000000, 32.000000)" fill="#000000">
                <path d="M6.41142857,5.91176471 L6.41142857,3.26470588 C6.41142857,2.25 5.8247619,1.58823529 4.81904762,1.58823529 C4.31619048,1.58823529 3.77142857,1.76470588 3.39428571,2.33823529 C3.10095238,1.85294118 2.68190476,1.58823529 2.05333333,1.58823529 C1.63428571,1.58823529 1.2152381,1.72058824 0.88,2.20588235 L0.88,1.67647059 L0,1.67647059 L0,5.91176471 L0.88,5.91176471 L0.88,3.57352941 C0.88,2.82352941 1.25714286,2.47058824 1.84380952,2.47058824 C2.43047619,2.47058824 2.72380952,2.86764706 2.72380952,3.57352941 L2.72380952,5.91176471 L3.60380952,5.91176471 L3.60380952,3.57352941 C3.60380952,2.82352941 4.02285714,2.47058824 4.56761905,2.47058824 C5.15428571,2.47058824 5.44761905,2.86764706 5.44761905,3.57352941 L5.44761905,5.91176471 L6.41142857,5.91176471 L6.41142857,5.91176471 Z M19.4438095,1.67647059 L18.0190476,1.67647059 L18.0190476,0.397058824 L17.1390476,0.397058824 L17.1390476,1.67647059 L16.3428571,1.67647059 L16.3428571,2.51470588 L17.1390476,2.51470588 L17.1390476,4.45588235 C17.1390476,5.42647059 17.5161905,6 18.5219048,6 C18.8990476,6 19.3180952,5.86764706 19.6114286,5.69117647 L19.36,4.89705882 C19.1085714,5.07352941 18.8152381,5.11764706 18.6057143,5.11764706 C18.1866667,5.11764706 18.0190476,4.85294118 18.0190476,4.41176471 L18.0190476,2.51470588 L19.4438095,2.51470588 L19.4438095,1.67647059 L19.4438095,1.67647059 Z M26.9028571,1.58823529 C26.4,1.58823529 26.0647619,1.85294118 25.8552381,2.20588235 L25.8552381,1.67647059 L24.9752381,1.67647059 L24.9752381,5.91176471 L25.8552381,5.91176471 L25.8552381,3.52941176 C25.8552381,2.82352941 26.1485714,2.42647059 26.6933333,2.42647059 C26.8609524,2.42647059 27.0704762,2.47058824 27.2380952,2.51470588 L27.4895238,1.63235294 C27.3219048,1.58823529 27.0704762,1.58823529 26.9028571,1.58823529 L26.9028571,1.58823529 L26.9028571,1.58823529 Z M15.6304762,2.02941176 C15.2114286,1.72058824 14.6247619,1.58823529 13.9961905,1.58823529 C12.9904762,1.58823529 12.32,2.11764706 12.32,2.95588235 C12.32,3.66176471 12.8228571,4.05882353 13.7028571,4.19117647 L14.1219048,4.23529412 C14.5828571,4.32352941 14.8342857,4.45588235 14.8342857,4.67647059 C14.8342857,4.98529412 14.4990476,5.20588235 13.912381,5.20588235 C13.3257143,5.20588235 12.8647619,4.98529412 12.5714286,4.76470588 L12.152381,5.47058824 C12.6133333,5.82352941 13.2419048,6 13.8704762,6 C15.0438095,6 15.7142857,5.42647059 15.7142857,4.63235294 C15.7142857,3.88235294 15.1695238,3.48529412 14.3314286,3.35294118 L13.912381,3.30882353 C13.5352381,3.26470588 13.2419048,3.17647059 13.2419048,2.91176471 C13.2419048,2.60294118 13.5352381,2.42647059 13.9961905,2.42647059 C14.4990476,2.42647059 15.0019048,2.64705882 15.2533333,2.77941176 L15.6304762,2.02941176 L15.6304762,2.02941176 Z M39.0133333,1.58823529 C38.5104762,1.58823529 38.1752381,1.85294118 37.9657143,2.20588235 L37.9657143,1.67647059 L37.0857143,1.67647059 L37.0857143,5.91176471 L37.9657143,5.91176471 L37.9657143,3.52941176 C37.9657143,2.82352941 38.2590476,2.42647059 38.8038095,2.42647059 C38.9714286,2.42647059 39.1809524,2.47058824 39.3485714,2.51470588 L39.6,1.63235294 C39.432381,1.58823529 39.1809524,1.58823529 39.0133333,1.58823529 L39.0133333,1.58823529 L39.0133333,1.58823529 Z M27.7828571,3.79411765 C27.7828571,5.07352941 28.6209524,6 29.92,6 C30.5066667,6 30.9257143,5.86764706 31.3447619,5.51470588 L30.9257143,4.76470588 C30.5904762,5.02941176 30.2552381,5.16176471 29.8780952,5.16176471 C29.1657143,5.16176471 28.6628571,4.63235294 28.6628571,3.79411765 C28.6628571,3 29.1657143,2.47058824 29.8780952,2.42647059 C30.2552381,2.42647059 30.5904762,2.55882353 30.9257143,2.82352941 L31.3447619,2.07352941 C30.9257143,1.72058824 30.5066667,1.58823529 29.92,1.58823529 C28.6209524,1.58823529 27.7828571,2.51470588 27.7828571,3.79411765 L27.7828571,3.79411765 L27.7828571,3.79411765 Z M35.912381,3.79411765 L35.912381,1.67647059 L35.032381,1.67647059 L35.032381,2.20588235 C34.7390476,1.80882353 34.32,1.58823529 33.7752381,1.58823529 C32.6438095,1.58823529 31.7638095,2.51470588 31.7638095,3.79411765 C31.7638095,5.07352941 32.6438095,6 33.7752381,6 C34.3619048,6 34.7809524,5.77941176 35.032381,5.38235294 L35.032381,5.91176471 L35.912381,5.91176471 L35.912381,3.79411765 Z M32.6857143,3.79411765 C32.6857143,3.04411765 33.1466667,2.42647059 33.9009524,2.42647059 C34.6133333,2.42647059 35.1161905,3 35.1161905,3.79411765 C35.1161905,4.54411765 34.6133333,5.16176471 33.9009524,5.16176471 C33.1466667,5.11764706 32.6857143,4.54411765 32.6857143,3.79411765 L32.6857143,3.79411765 Z M22.167619,1.58823529 C20.9942857,1.58823529 20.1561905,2.47058824 20.1561905,3.79411765 C20.1561905,5.11764706 20.9942857,6 22.2095238,6 C22.7961905,6 23.3828571,5.82352941 23.8438095,5.42647059 L23.4247619,4.76470588 C23.0895238,5.02941176 22.6704762,5.20588235 22.2514286,5.20588235 C21.7066667,5.20588235 21.1619048,4.94117647 21.0361905,4.19117647 L24.0114286,4.19117647 C24.0114286,4.05882353 24.0114286,3.97058824 24.0114286,3.83823529 C24.0533333,2.47058824 23.2990476,1.58823529 22.167619,1.58823529 L22.167619,1.58823529 L22.167619,1.58823529 Z M22.167619,2.38235294 C22.712381,2.38235294 23.0895238,2.73529412 23.1733333,3.39705882 L21.0780952,3.39705882 C21.1619048,2.82352941 21.5390476,2.38235294 22.167619,2.38235294 L22.167619,2.38235294 Z M44,3.79411765 L44,0 L43.12,0 L43.12,2.20588235 C42.8266667,1.80882353 42.407619,1.58823529 41.8628571,1.58823529 C40.7314286,1.58823529 39.8514286,2.51470588 39.8514286,3.79411765 C39.8514286,5.07352941 40.7314286,6 41.8628571,6 C42.4495238,6 42.8685714,5.77941176 43.12,5.38235294 L43.12,5.91176471 L44,5.91176471 L44,3.79411765 Z M40.7733333,3.79411765 C40.7733333,3.04411765 41.2342857,2.42647059 41.9885714,2.42647059 C42.7009524,2.42647059 43.2038095,3 43.2038095,3.79411765 C43.2038095,4.54411765 42.7009524,5.16176471 41.9885714,5.16176471 C41.2342857,5.11764706 40.7733333,4.54411765 40.7733333,3.79411765 L40.7733333,3.79411765 Z M11.3561905,3.79411765 L11.3561905,1.67647059 L10.4761905,1.67647059 L10.4761905,2.20588235 C10.1828571,1.80882353 9.76380952,1.58823529 9.21904762,1.58823529 C8.08761905,1.58823529 7.20761905,2.51470588 7.20761905,3.79411765 C7.20761905,5.07352941 8.08761905,6 9.21904762,6 C9.80571429,6 10.2247619,5.77941176 10.4761905,5.38235294 L10.4761905,5.91176471 L11.3561905,5.91176471 L11.3561905,3.79411765 Z M8.08761905,3.79411765 C8.08761905,3.04411765 8.54857143,2.42647059 9.30285714,2.42647059 C10.0152381,2.42647059 10.5180952,3 10.5180952,3.79411765 C10.5180952,4.54411765 10.0152381,5.16176471 9.30285714,5.16176471 C8.54857143,5.11764706 8.08761905,4.54411765 8.08761905,3.79411765 Z" id="XMLID_1775_"></path>
            </g>
            <g id="XMLID_328_">
                <rect id="rect19" fill="#FF5F00" x="17.8755407" y="3.2083375" width="13.248927" height="23.5833325"></rect>
                <path d="M18.7167382,15 C18.7167382,10.2083333 20.9879828,5.95833333 24.47897,3.20833333 C21.9133047,1.20833333 18.6746781,0 15.1416309,0 C6.77167382,0 0,6.70833333 0,15 C0,23.2916667 6.77167382,30 15.1416309,30 C18.6746781,30 21.9133047,28.7916667 24.47897,26.7916667 C20.9879828,24.0833333 18.7167382,19.7916667 18.7167382,15 Z" id="XMLID_330_" fill="#EB001B"></path>
                <path d="M49,15 C49,23.2916667 42.2283262,30 33.8583691,30 C30.3253219,30 27.0866953,28.7916667 24.52103,26.7916667 C28.0540773,24.0416667 30.2832618,19.7916667 30.2832618,15 C30.2832618,10.2083333 28.0120172,5.95833333 24.52103,3.20833333 C27.0866953,1.20833333 30.3253219,0 33.8583691,0 C42.2283262,0 49,6.75 49,15 Z" id="path22" fill="#F79E1B"></path>
            </g>
        </g>
    </g>
</svg>

<?xml version="1.0" encoding="UTF-8" standalone="no"?>
<svg
   xmlns:dc="http://purl.org/dc/elements/1.1/"
   xmlns:cc="http://creativecommons.org/ns#"
   xmlns:rdf="http://www.w3.org/1999/02/22-rdf-syntax-ns#"
   xmlns:svg="http://www.w3.org/2000/svg"
   xmlns="http://www.w3.org/2000/svg"
   xmlns:sodipodi="http://sodipodi.sourceforge.net/DTD/sodipodi-0.dtd"
   xmlns:inkscape="http://www.inkscape.org/namespaces/inkscape"
   width="35"
   height="22"
   viewBox="0 0 35 22"
   version="1.1"
   id="svg105"
   sodipodi:docname="Logo_mastercard.svg"
   inkscape:version="1.0.2 (e86c870879, 2021-01-15)">
  <metadata
     id="metadata111">
    <rdf:RDF>
      <cc:Work
         rdf:about="">
        <dc:format>image/svg+xml</dc:format>
        <dc:type
           rdf:resource="http://purl.org/dc/dcmitype/StillImage" />
        <dc:title>Logo_mastercard</dc:title>
      </cc:Work>
    </rdf:RDF>
  </metadata>
  <defs
     id="defs109" />
  <sodipodi:namedview
     pagecolor="#ffffff"
     bordercolor="#666666"
     borderopacity="1"
     objecttolerance="10"
     gridtolerance="10"
     guidetolerance="10"
     inkscape:pageopacity="0"
     inkscape:pageshadow="2"
     inkscape:window-width="1920"
     inkscape:window-height="1006"
     id="namedview107"
     showgrid="false"
     inkscape:zoom="15.253333"
     inkscape:cx="37.5"
     inkscape:cy="24"
     inkscape:window-x="0"
     inkscape:window-y="0"
     inkscape:window-maximized="1"
     inkscape:current-layer="svg105" />
  <title
     id="title94">Logo_mastercard</title>
  <g
     id="Logo_mastercard"
     stroke="none"
     stroke-width="1"
     fill="none"
     fill-rule="evenodd"
     transform="matrix(0.46579015,0,0,0.45367422,0.03286948,-0.04991326)">
    <rect
       id="Rectangle-Copy"
       stroke="#888888"
       fill="#ffffff"
       x="0.5"
       y="0.5"
       width="74"
       height="47"
       rx="6" />
    <g
       id="Mastercard-logo"
       transform="translate(13,5)"
       fill-rule="nonzero">
      <g
         id="g15"
         transform="translate(2,32)"
         fill="#000000">
        <path
           d="M 6.4114286,5.9117647 V 3.2647059 c 0,-1.0147059 -0.5866667,-1.6764706 -1.592381,-1.6764706 -0.5028571,0 -1.047619,0.1764706 -1.4247619,0.75 -0.2933333,-0.4852941 -0.7123809,-0.75 -1.3409524,-0.75 -0.4190476,0 -0.8380952,0.1323529 -1.1733333,0.6176471 V 1.6764706 H 0 V 5.9117647 H 0.88 V 3.5735294 c 0,-0.75 0.3771429,-1.1029412 0.9638095,-1.1029412 0.5866667,0 0.88,0.3970589 0.88,1.1029412 v 2.3382353 h 0.88 V 3.5735294 c 0,-0.75 0.4190476,-1.1029412 0.9638095,-1.1029412 0.5866667,0 0.88,0.3970589 0.88,1.1029412 V 5.9117647 Z M 19.443809,1.6764706 H 18.019048 V 0.39705882 h -0.88 V 1.6764706 h -0.796191 v 0.8382353 h 0.796191 V 4.4558824 C 17.139048,5.4264706 17.51619,6 18.521905,6 18.899048,6 19.318095,5.8676471 19.611429,5.6911765 L 19.36,4.8970588 c -0.251429,0.1764706 -0.544762,0.2205883 -0.754286,0.2205883 -0.419047,0 -0.586666,-0.2647059 -0.586666,-0.7058824 V 2.5147059 h 1.424761 V 1.6764706 Z m 7.459048,-0.088235 c -0.502857,0 -0.838095,0.2647059 -1.047619,0.6176471 V 1.6764706 h -0.88 v 4.2352941 h 0.88 V 3.5294118 c 0,-0.7058824 0.293333,-1.1029412 0.838095,-1.1029412 0.167619,0 0.377143,0.044118 0.544762,0.088235 l 0.251429,-0.882353 c -0.167619,-0.044118 -0.419048,-0.044118 -0.586667,-0.044118 v 0 z M 15.630476,2.0294118 C 15.211429,1.7205882 14.624762,1.5882353 13.996191,1.5882353 c -1.005715,0 -1.676191,0.5294118 -1.676191,1.3676471 0,0.7058823 0.502857,1.1029411 1.382857,1.2352941 l 0.419048,0.044118 c 0.460952,0.088235 0.712381,0.2205883 0.712381,0.4411765 0,0.3088235 -0.335238,0.5294118 -0.921905,0.5294118 -0.586667,0 -1.047619,-0.2205883 -1.340952,-0.4411765 L 12.152381,5.4705882 C 12.613333,5.8235294 13.241905,6 13.870476,6 c 1.173334,0 1.84381,-0.5735294 1.84381,-1.3676471 0,-0.75 -0.544762,-1.1470588 -1.382857,-1.2794117 l -0.419048,-0.044118 c -0.377143,-0.044118 -0.670476,-0.1323529 -0.670476,-0.3970588 0,-0.3088235 0.293333,-0.4852941 0.754286,-0.4852941 0.502857,0 1.005714,0.2205882 1.257142,0.3529412 z M 39.013333,1.5882353 c -0.502857,0 -0.838095,0.2647059 -1.047619,0.6176471 V 1.6764706 h -0.88 v 4.2352941 h 0.88 V 3.5294118 c 0,-0.7058824 0.293334,-1.1029412 0.838095,-1.1029412 0.16762,0 0.377143,0.044118 0.544762,0.088235 L 39.6,1.6323529 C 39.432381,1.5882349 39.180952,1.5882349 39.013333,1.5882349 Z M 27.782857,3.7941177 C 27.782857,5.0735294 28.620952,6 29.92,6 30.506667,6 30.925714,5.8676471 31.344762,5.5147059 l -0.419048,-0.75 c -0.335238,0.2647059 -0.670476,0.3970588 -1.047619,0.3970588 -0.712381,0 -1.215238,-0.5294118 -1.215238,-1.367647 0,-0.7941177 0.502857,-1.3235295 1.215238,-1.3676471 0.377143,0 0.712381,0.1323529 1.047619,0.3970588 l 0.419048,-0.75 C 30.925714,1.7205882 30.506667,1.5882353 29.92,1.5882353 c -1.299048,0 -2.137143,0.9264706 -2.137143,2.2058824 z m 8.129524,0 V 1.6764706 h -0.88 V 2.2058824 C 34.739048,1.8088235 34.32,1.5882353 33.775238,1.5882353 c -1.131428,0 -2.011429,0.9264706 -2.011429,2.2058824 C 31.763809,5.0735294 32.64381,6 33.775238,6 34.361905,6 34.780952,5.7794118 35.032381,5.3823529 v 0.5294118 h 0.88 z m -3.226667,0 c 0,-0.75 0.460953,-1.3676471 1.215238,-1.3676471 0.712381,0 1.215239,0.5735294 1.215239,1.3676471 0,0.7499999 -0.502858,1.367647 -1.215239,1.367647 -0.754285,-0.044118 -1.215238,-0.6176471 -1.215238,-1.367647 z M 22.167619,1.5882353 c -1.173333,0 -2.011429,0.8823529 -2.011429,2.2058824 C 20.15619,5.1176471 20.994286,6 22.209524,6 22.796191,6 23.382857,5.8235294 23.843809,5.4264706 L 23.424762,4.7647059 c -0.335238,0.2647059 -0.754286,0.4411765 -1.173333,0.4411765 -0.544762,0 -1.089524,-0.2647059 -1.215239,-1.0147059 h 2.975239 c 0,-0.132353 0,-0.2205883 0,-0.3529412 0.0419,-1.3676471 -0.712381,-2.25 -1.84381,-2.25 z m 0,0.7941176 c 0.544762,0 0.921905,0.3529412 1.005714,1.0147059 h -2.095238 c 0.08381,-0.5735294 0.460953,-1.0147059 1.089524,-1.0147059 z M 44,3.7941177 V 0 H 43.12 V 2.2058824 C 42.826667,1.8088235 42.407619,1.5882353 41.862857,1.5882353 c -1.131428,0 -2.011428,0.9264706 -2.011428,2.2058824 C 39.851429,5.0735294 40.731429,6 41.862857,6 42.449524,6 42.868571,5.7794118 43.12,5.3823529 V 5.9117647 H 44 Z m -3.226667,0 c 0,-0.75 0.460953,-1.3676471 1.215238,-1.3676471 0.712381,0 1.215238,0.5735294 1.215238,1.3676471 0,0.7499999 -0.502857,1.367647 -1.215238,1.367647 -0.754285,-0.044118 -1.215238,-0.6176471 -1.215238,-1.367647 z m -29.417142,0 V 1.6764706 h -0.88 V 2.2058824 C 10.182857,1.8088235 9.7638095,1.5882353 9.2190476,1.5882353 8.0876191,1.5882353 7.207619,2.5147059 7.207619,3.7941177 7.207619,5.0735294 8.0876191,6 9.2190476,6 9.8057143,6 10.224762,5.7794118 10.476191,5.3823529 v 0.5294118 h 0.88 z m -3.2685719,0 c 0,-0.75 0.4609523,-1.3676471 1.215238,-1.3676471 0.7123809,0 1.2152379,0.5735294 1.2152379,1.3676471 0,0.7499999 -0.502857,1.367647 -1.2152379,1.367647 -0.7542857,-0.044118 -1.215238,-0.6176471 -1.215238,-1.367647 z"
           id="XMLID_1775_" />
      </g>
      <g
         id="XMLID_328_">
        <rect
           id="rect19"
           fill="#ff5f00"
           x="17.87554"
           y="3.2083375"
           width="13.248927"
           height="23.583332" />
        <path
           d="m 18.716738,15 c 0,-4.791667 2.271245,-9.0416667 5.762232,-11.7916667 C 21.913305,1.2083333 18.674678,0 15.141631,0 6.7716738,0 0,6.7083333 0,15 c 0,8.291667 6.7716738,15 15.141631,15 3.533047,0 6.771674,-1.208333 9.337339,-3.208333 -3.490987,-2.708334 -5.762232,-7 -5.762232,-11.791667 z"
           id="XMLID_330_"
           fill="#eb001b" />
        <path
           d="m 49,15 c 0,8.291667 -6.771674,15 -15.141631,15 -3.533047,0 -6.771674,-1.208333 -9.337339,-3.208333 3.533047,-2.75 5.762232,-7 5.762232,-11.791667 0,-4.791667 -2.271245,-9.0416667 -5.762232,-11.7916667 C 27.086695,1.2083333 30.325322,0 33.858369,0 42.228326,0 49,6.75 49,15 Z"
           id="path22"
           fill="#f79e1b" />
      </g>
    </g>
  </g>
</svg>
